symbols/web/storefront/materialsymbolssharp/storefront_wght700grad200fill1_48px.svg

<svg xmlns="http://www.w3.org/2000/svg" height="48" width="48"><path d="M4.7 43.6V22.4q-1.5-1.55-1.8-3.45-.3-1.9.25-3.65l2.1-6.75Q5.85 6.8 7.1 5.8t3.05-1h27.5q1.75 0 3.125 1.05t1.975 2.7l2.15 6.75q.55 1.7.125 3.55-.425 1.85-1.675 3.35v21.4Zm23.8-23.5q1.2 0 2.125-.8t.775-2l-1.2-7.9h-4.3v7.85q0 1.15.725 2 .725.85 1.875.85Zm-9.3 0q1.15 0 2.05-.825.9-.825.9-2.025V9.4H17.9l-1.2 7.9q-.2 1.1.5 1.95.7.85 2 .85Zm-9.1 0q1 0 1.8-.75t.9-1.8l1.3-8.15H9.8l-2.2 7q-.45 1.45.3 2.575.75 1.125 2.2 1.125Zm27.8 0q1.4 0 2.2-1.1.8-1.1.35-2.6l-2.2-7h-4.2l1.2 8.15q.05 1.05.825 1.8.775.75 1.825.75Z"/></svg>

<svg xmlns="http://www.w3.org/2000/svg" height="48" width="48"><path d="M4.7 43.6V22.4Q3.2 20.85 2.9 18.95Q2.6 17.05 3.15 15.3L5.25 8.55Q5.85 6.8 7.1 5.8Q8.35 4.8 10.15 4.8H37.65Q39.4 4.8 40.775 5.85Q42.15 6.9 42.75 8.55L44.9 15.3Q45.45 17 45.025 18.85Q44.6 20.7 43.35 22.2V43.6ZM28.5 20.1Q29.7 20.1 30.625 19.3Q31.55 18.5 31.4 17.3L30.2 9.4H25.9V17.25Q25.9 18.4 26.625 19.25Q27.35 20.1 28.5 20.1ZM19.2 20.1Q20.35 20.1 21.25 19.275Q22.15 18.45 22.15 17.25V9.4H17.9L16.7 17.3Q16.5 18.4 17.2 19.25Q17.9 20.1 19.2 20.1ZM10.1 20.1Q11.1 20.1 11.9 19.35Q12.7 18.6 12.8 17.55L14.1 9.4H9.8Q9.8 9.4 9.8 9.4Q9.8 9.4 9.8 9.4L7.6 16.4Q7.15 17.85 7.9 18.975Q8.65 20.1 10.1 20.1ZM37.9 20.1Q39.3 20.1 40.1 19Q40.9 17.9 40.45 16.4L38.25 9.4Q38.25 9.4 38.25 9.4Q38.25 9.4 38.25 9.4H34.05L35.25 17.55Q35.3 18.6 36.075 19.35Q36.85 20.1 37.9 20.1Z"/></svg>
